React/src/assets/images/otherSkills/mariadb-icon.svg

<svg width="130" height="130" viewBox="0 0 130 130" fill="none" xmlns="http://www.w3.org/2000/svg">
<g clip-path="url(#clip0)">
<path d="M112.927 29.9436C110.116 30.0142 108.457 31.2396 107.912 33.5778C108.632 34.2055 109.603 34.4789 110.57 34.4368C112.695 34.3467 114.8 32.7278 114.204 29.9842C113.756 29.9466 113.33 29.9316 112.927 29.9436ZM127.407 21.9424H127.156C125.152 22.007 124.841 23.0942 120.511 24.1604C116.138 25.2372 111.914 24.2025 107.206 26.1788C93.1451 32.0761 90.1491 52.4171 77.3694 59.6359C67.8183 65.0317 58.5797 67.4269 49.9177 70.1406C44.2231 71.9246 38.5766 73.979 33.4166 78.4241C29.4115 81.8781 28.3107 84.5587 24.1404 88.8912C19.883 93.2958 6.79086 85.5003 0.412993 91.2039C0.281818 91.3237 0.177426 91.4698 0.106653 91.6328C0.03588 91.7957 0.00032173 91.9718 0.00230652 92.1494C0.00429132 92.3271 0.0437744 92.5023 0.11817 92.6636C0.192567 92.8249 0.300198 92.9687 0.434017 93.0856C1.81561 94.2944 4.44365 97.1733 6.94554 98.0623C6.15262 99.564 1.66994 103.988 2.5845 106.202C3.54561 108.529 14.6584 106.948 24.9303 100.746C29.7133 97.8566 33.5247 93.6938 40.9763 92.7011C50.6175 91.4171 61.7258 93.5271 72.8882 95.1339C71.2318 100.069 67.9099 103.353 65.2474 107.298C64.4214 108.187 66.9038 108.286 69.7315 107.748C74.8374 106.49 78.4897 105.476 82.3461 103.243C87.0661 100.495 87.7824 93.452 93.5701 91.9292C96.3693 96.2317 103.331 97.6809 108.699 95.3832C108.996 95.2571 109.287 95.1174 109.573 94.9702C110.218 94.4071 109.84 93.7493 109.443 93.2658C109.255 93.0911 109.073 92.9088 108.9 92.7191C105.878 89.4724 105.187 81.8075 106.527 78.0802C108.054 73.8393 109.564 67.053 111.101 61.4485C112.753 55.4416 113.363 47.8383 115.362 44.7702C118.368 40.1569 121.692 38.5726 124.576 35.9701C127.461 33.3676 130.103 30.8342 130.013 24.8813C129.971 23.0447 129.068 21.9874 127.407 21.9424V21.9424ZM127.714 28.1941C127.117 32.2998 124.494 34.557 121.394 36.7345C118.691 38.6417 115.697 40.4783 113.78 43.4577C111.821 46.5063 110.576 56.9508 107.533 67.2632C105.01 75.8201 101.25 84.2854 94.818 88.3626C94.4005 88.6269 93.8494 88.3851 93.7608 87.9121C93.3103 85.5213 93.4004 81.1543 92.6585 82.5659C91.7275 85.224 90.6732 87.7589 89.4403 90.1151C85.6559 97.3475 80.1806 102.887 71.3339 105.057C71.1773 105.093 71.0136 105.08 70.8644 105.021C70.7151 104.962 70.5872 104.859 70.4976 104.726C70.4079 104.592 70.3606 104.435 70.3619 104.275C70.3633 104.114 70.4131 103.958 70.5049 103.826C74.5867 98.1644 78.2389 92.0749 78.6849 82.7807C78.7224 81.9787 77.7148 81.6123 77.2087 82.234C75.2805 84.6113 74.8059 90.2638 71.9872 92.0043C69.7736 92.2446 67.5315 92.2446 65.2744 92.1094C56.0087 91.5538 46.4997 88.7666 37.8317 91.5493C31.9299 93.4445 25.7322 98.8327 20.733 101C14.8582 103.532 12.074 105.934 4.65539 105.769C3.89702 104.748 7.75197 100.328 9.06148 98.4212C9.47896 97.81 8.58543 97.1673 7.74897 96.7693C5.73964 95.8472 3.72432 93.3454 1.58134 92.3692C1.85616 91.8631 2.82778 91.3571 3.3639 91.0477C8.22952 88.2244 21.1324 94.2374 24.5984 90.833C26.7384 88.7335 28.1801 86.8894 29.6337 84.7509C31.0454 82.6785 33.1898 80.489 35.4109 78.6734C36.354 77.9179 37.3258 77.199 38.3243 76.5184C42.1086 73.9294 44.1916 73.7372 49.0917 71.9171C55.3269 69.5984 63.0473 67.5651 69.7361 65.0091C73.8688 63.4278 78.362 61.48 82.0247 58.7469C82.8958 58.0981 83.7172 57.4058 84.4786 56.6655C94.9367 46.4537 97.0106 28.4839 113.312 26.808C115.285 26.6053 116.688 26.5197 118.159 26.4731C119.805 26.4281 121.433 26.0226 123.06 25.2447C123.561 25.0254 126.55 23.2174 127.559 24.0914C128.232 24.674 127.732 27.8337 127.688 28.1761" fill="#444B5E"/>
</g>
<defs>
<clipPath id="clip0">
<rect width="130" height="130" fill="white"/>
</clipPath>
</defs>
</svg>

<svg width="130" height="130" fill="none" xmlns="http://www.w3.org/2000/svg"><g clip-path="url(#clip0)"><path d="M112.927 29.944c-2.811.07-4.47 1.296-5.015 3.634.72.627 1.691.9 2.658.859 2.125-.09 4.23-1.71 3.634-4.453a11.302 11.302 0 00-1.277-.04zm14.48-8.002h-.251c-2.004.065-2.315 1.152-6.645 2.218-4.373 1.077-8.597.043-13.305 2.019-14.06 5.897-17.057 26.238-29.837 33.457-9.55 5.396-18.79 7.79-27.451 10.505-5.695 1.784-11.341 3.838-16.501 8.283-4.006 3.454-5.106 6.135-9.277 10.467-4.257 4.405-17.35-3.39-23.727 2.313a1.26 1.26 0 00.021 1.882c1.382 1.208 4.01 4.087 6.512 4.976-.793 1.502-5.276 5.926-4.362 8.14.962 2.327 12.074.746 22.346-5.456 4.783-2.89 8.595-7.052 16.046-8.045 9.642-1.284 20.75.826 31.912 2.433-1.656 4.935-4.978 8.219-7.64 12.164-.827.889 1.656.988 4.483.45 5.106-1.258 8.759-2.272 12.615-4.505 4.72-2.748 5.436-9.791 11.224-11.314 2.8 4.303 9.761 5.752 15.129 3.454.297-.126.588-.266.874-.413.645-.563.267-1.22-.13-1.704a9.334 9.334 0 01-.543-.547c-3.022-3.247-3.713-10.911-2.373-14.639 1.527-4.24 3.037-11.027 4.574-16.631 1.652-6.007 2.262-13.61 4.261-16.679 3.006-4.613 6.33-6.197 9.214-8.8 2.885-2.602 5.527-5.136 5.437-11.089-.042-1.836-.945-2.894-2.606-2.939zm.307 6.252c-.597 4.106-3.22 6.363-6.32 8.54-2.703 1.908-5.697 3.744-7.614 6.724-1.959 3.048-3.204 13.493-6.247 23.805-2.523 8.557-6.283 17.022-12.715 21.1a.697.697 0 01-1.057-.45c-.45-2.392-.36-6.759-1.102-5.347-.931 2.658-1.986 5.193-3.219 7.55-3.784 7.231-9.26 12.771-18.106 14.941a.794.794 0 01-.972-.782.797.797 0 01.143-.449c4.082-5.662 7.734-11.751 8.18-21.045.037-.802-.97-1.169-1.476-.547-1.928 2.377-2.403 8.03-5.222 9.77-2.213.24-4.456.24-6.713.105-9.265-.555-18.774-3.342-27.442-.56-5.902 1.895-12.1 7.284-17.099 9.451-5.875 2.532-8.659 4.934-16.078 4.769-.758-1.021 3.097-5.441 4.406-7.348.418-.611-.476-1.254-1.312-1.652-2.01-.922-4.025-3.424-6.168-4.4.275-.506 1.247-1.012 1.783-1.321 4.866-2.824 17.768 3.19 21.234-.215 2.14-2.1 3.582-3.944 5.036-6.082 1.411-2.073 3.556-4.262 5.777-6.078a47.003 47.003 0 012.913-2.155c3.785-2.589 5.868-2.78 10.768-4.6 6.235-2.32 13.955-4.353 20.644-6.909 4.133-1.581 8.626-3.529 12.289-6.262a24.548 24.548 0 002.454-2.081c10.458-10.212 12.532-28.182 28.833-29.858a64.58 64.58 0 014.847-.335c1.646-.045 3.274-.45 4.901-1.228.501-.22 3.49-2.028 4.499-1.154.673.583.173 3.743.129 4.085" fill="#444B5E"/></g><defs><clipPath id="clip0"><path fill="#fff" d="M0 0h130v130H0z"/></clipPath></defs></svg>
